X:1
T:Carolyn, CMD
T:Carolyn, CMD
T:Arranged from “Emmelar”
T:Public Domain Courtesy of the Cyber Hymnal™
C:Arranged from “Emmelar”
Z:Public Domain
Z:Courtesy of the Cyber Hymnal™
%%score ( 1 2 ) 3
L:1/8
Q:1/4=105
M:4/4
K:F
V:1 treble 
V:2 treble 
V:3 bass 
V:1
 [FA]2 | [EG]3 [CF] [CF]2 [CE]2 | [B,E]3 [B,D] [B,D]2 [B,D]2 | [DB]3 [DA] [DG]2 [DF]2 | [CE]6 C2 | %5
 [CF]3 [CF] [FA]2 [FB]2 | [E^B]3 [Ec] [Ec]2 [E_B]2 | [FA]2 [FA]2 [FA]3 [FG] | [EG]6 [Ec]2 | %9
 [Af]3 [Ae] [Ad]2 [EA]2 | [Ec]3 [Fc] [FA]2 [Fd]2 | [Ec]3 [EB] [EA]2 [EG]2 | [CA]4 [Ec]4 | %13
 [Af]3 [Ae] [Fd]2 [FA]2 | [Fc]3 [Fc] [FA]2 [_EA]2 | [Dc]3 [DB] [EA]2 [EG]2 | [CF]6 |] %17
V:2
 x2 | x8 | x8 | x8 | x6 C2 | x8 | x8 | x8 | x8 | x8 | x8 | x8 | x8 | x8 | x8 | x8 | x6 |] %17
V:3
 [F,C]2 | [F,B,]3 [F,A,] [F,A,]2 [F,A,]2 | [B,,F,]3 [B,,F,] [B,,F,]2 [B,,F,]2 | %3
 [G,,G,]3 [A,,^F,] [B,,G,]2 [=B,,G,]2 | [C,G,]6 [E,B,]2 | [F,A,]3 [F,A,] [D,A,]2 [D,F,]2 | %6
 [C,G,]3 [C,G,] [C,G,]2 [C,C]2 | [F,C]2 [F,C]2 [G,=B,]3 [G,B,] | [C,C]6 [G,B,]2 | %9
 [F,A,]3 [C,A,] [F,A,]2 [F,C]2 | [F,A,]3 [F,A,] [F,C]2 [F,A,]2 | [C,B,]3 [C,G,] [C,C]2 [C,B,]2 | %12
 [F,A,]4 [G,B,]4 | [C,A,]3 [C,A,] [F,A,]2 [F,C]2 | [F,A,]3 [F,A,] [F,C]2 [F,C]2 | %15
 [B,,B,]3 [B,,G,] [C,B,]2 [C,B,]2 | [F,A,]6 |] %17

